X:1
T:March EHo.063
T:March EHo.063
T:Hill
C:Hill
L:1/8
Q:1/4=120
M:2/2
K:F
V:1 treble 
V:1
"^Modto" C>E |!f! F2 C>F A2 F2 | c2 c/d/c/B/ A2 c>c | f4 g2 a2 | g2 g>g g2!f! C>E | F2 C>F A2 F2 | %6
 c2 c/d/c/=B/ c2 de |!f! f/g/f/e/ fg a2 =b2 | c'2 c>c c2 :: c>e | gccc egec | afff f2 ga | %12
 bggg afff | ec'c'c' c'2 z2 | gc/c/ cc egec | af/f/ ff f2 _e2 | d2 b2 g2 f2 | e2 c'2 a2 g2 | %18
 f2 c>c a2 f2 | c2 c/d/c/B/ A2 FF | GFGA Bcde | f2 f>f f2 :| %22

